icons/svgs/stopwatch-solid.svg

<svg width="24" height="24" viewBox="0 0 24 24" fill="none" xmlns="http://www.w3.org/2000/svg">
<path d="M10.125 2H12H13.875C14.5391 2 15.125 2.58594 15.125 3.25C15.125 3.95312 14.5391 4.5 13.875 4.5H13.25V5.86719C14.6953 6.10156 16.0234 6.6875 17.1172 7.58594L17.9766 6.76562C18.4453 6.25781 19.2656 6.25781 19.7344 6.76562C20.2422 7.23438 20.2422 8.05469 19.7344 8.52344L18.7969 9.46094C19.6172 10.75 20.125 12.2734 20.125 13.875C20.125 18.3672 16.4531 22 12 22C7.50781 22 3.875 18.3672 3.875 13.875C3.875 9.8125 6.84375 6.45312 10.75 5.86719V4.5H10.125C9.42188 4.5 8.875 3.95312 8.875 3.25C8.875 2.58594 9.42188 2 10.125 2ZM12.9375 9.5C12.9375 8.99219 12.5078 8.5625 12 8.5625C11.4531 8.5625 11.0625 8.99219 11.0625 9.5V14.5C11.0625 15.0469 11.4531 15.4375 12 15.4375C12.5078 15.4375 12.9375 15.0469 12.9375 14.5V9.5Z" fill="black"/>
</svg>

<svg xmlns="http://www.w3.org/2000/svg" width="24" height="24" fill="currentColor" class="icon-stopwatch-solid" viewBox="0 0 24 24">
  <mask id="a" width="18" height="20" x="3" y="2" maskUnits="userSpaceOnUse" style="mask-type:alpha">
    <path d="M10.125 2h3.75c.664 0 1.25.586 1.25 1.25 0 .703-.586 1.25-1.25 1.25h-.625v1.367c1.445.235 2.773.82 3.867 1.719l.86-.82a1.205 1.205 0 0 1 1.757 0 1.203 1.203 0 0 1 0 1.757l-.937.938c.82 1.289 1.328 2.812 1.328 4.414C20.125 18.367 16.453 22 12 22a8.12 8.12 0 0 1-8.125-8.125 8.08 8.08 0 0 1 6.875-8.008V4.5h-.625c-.703 0-1.25-.547-1.25-1.25 0-.664.547-1.25 1.25-1.25m2.813 7.5A.95.95 0 0 0 12 8.563a.925.925 0 0 0-.937.937v5c0 .547.39.938.937.938a.926.926 0 0 0 .938-.938z"/>
  </mask>
  <g mask="url(#a)">
    <path d="M0 0h24v24H0z"/>
  </g>
</svg>
